P2
64 32
65535
32767 44003 53876 61190 65058 65010 61052 53665 43744 32492 21273 11448 4208 431 574 4622 12082 22050 33318 44519 54295 61460 65147 64907 60770 53238 43223 31941 20758 11032 3942 346 682 4908 12512 22572 33869 45031 54707 61722 65227 64795 60480 52805 42699 31390 20247 10623 3684 271 798 5202 12948 23097 34419 45541 55113 61976 65297 64674 60182 52366 42173 30840
51269 59421 64340 65432 62562 56080 46771 35764 24394 14038 5954 1121 125 3087 9648 19012 30044 41406 51721 59737 64483 65384 62329 55690 46271 35215 23862 13589 5641 983 178 3325 10042 19514 30594 41937 52168 60046 64617 65326 62087 55293 45767 34665 23333 13145 5336 853 240 3571 10442 20020 31144 42464 52609 60348 64742 65259 61837 54890 45260 34115 22807 12706
63308 65527 63775 58263 49659 39007 27598 16816 7968 2128 2 1849 7445 16112 26798 38208 48958 57745 63503 65534 63592 57913 49184 38465 27055 16337 7612 1937 0 2036 7799 16589 27341 38750 49435 58098 63690 65532 63401 57556 48705 37922 26513 15863 7262 1754 7 2232 8159 17070 27885 39291 49907 58444 63867 65520 63201 57192 48221 37377 25973 15393 6920 1581
64678 60190 52377 42187 30854 19753 10231 3440 206 920 5496 13378 23611 34955 46033 55503 62215 65358 64548 59885 51933 41658 30304 19250 9834 3199 149 1054 5805 13825 24142 35504 46535 55896 62453 65410 64409 59572 51484 41126 29755 18750 9444 2966 101 1198 6122 14277 24674 36053 47033 56283 62682 65453 64262 59251 51029 40592 29207 18254 9060 2741 62 1350
54900 45273 34129 22821 12718 5046 736 309 3818 10838 20516 31680 42975 53033 60634 64855 65186 61586 54491 44762 33579 22297 12285 4756 624 389 4081 11250 21029 32231 43498 53463 60920 64962 65101 61319 54075 44248 33028 21777 11858 4474 522 479 4351 11669 21545 32782 44017 53888 61198 65060 65007 61045 53654 43730 32477 21259 11437 4201 428 577 4629 12093
37391 25987 15406 6929 1585 23 2430 8517 17543 28416 39816 50361 58774 64032 65500 62998 56831 47746 36845 25449 14941 6594 1420 48 2643 8890 18033 28962 40353 50824 59105 64193 65470 62782 56454 47254 36298 24913 14481 6266 1264 83 2864 9271 18527 29510 40888 51281 59429 64344 65431 62556 56070 46758 35750 24379 14026 5946 1117 126 3093 9659 19026 30059
18267 9070 2747 63 1345 6438 14722 25195 36586 47514 56653 62897 65487 64109 58931 50581 40071 28675 17775 8693 2530 34 1506 6769 15185 25732 37133 48004 57027 63109 65512 63944 58596 50116 39532 28128 17287 8322 2322 13 1676 7108 15652 26271 37678 48489 57394 63313 65528 63770 58253 49646 38992 27584 16804 7959 2123 2 1854 7455 16124 26812 38222 48971
4208 431 574 4622 12082 22050 33318 44519 54295 61460 65147 64907 60770 53238 43223 31941 20758 11032 3942 346 682 4908 12512 22572 33869 45031 54707 61722 65227 64795 60480 52805 42699 31390 20247 10623 3684 271 798 5202 12948 23097 34419 45541 55113 61976 65297 64674 60182 52366 42173 30840 19740 10220 3434 205 924 5504 13390 23625 34969 46046 55513 62222
125 3087 9648 19012 30044 41406 51721 59737 64483 65384 62329 55690 46271 35215 23862 13589 5641 983 178 3325 10042 19514 30594 41937 52168 60046 64617 65326 62087 55293 45767 34665 23333 13145 5336 853 240 3571 10442 20020 31144 42464 52609 60348 64742 65259 61837 54890 45260 34115 22807 12706 5038 733 311 3825 10848 20529 31694 42989 53045 60641 64858 65184
7445 16112 26798 38208 48958 57745 63503 65534 63592 57913 49184 38465 27055 16337 7612 1937 0 2036 7799 16589 27341 38750 49435 58098 63690 65532 63401 57556 48705 37922 26513 15863 7262 1754 7 2232 8159 17070 27885 39291 49907 58444 63867 65520 63201 57192 48221 37377 25973 15393 6920 1581 23 2436 8526 17556 28430 39830 50374 58782 64037 65499 62993 56821
23611 34955 46033 55503 62215 65358 64548 59885 51933 41658 30304 19250 9834 3199 149 1054 5805 13825 24142 35504 46535 55896 62453 65410 64409 59572 51484 41126 29755 18750 9444 2966 101 1198 6122 14277 24674 36053 47033 56283 62682 65453 64262 59251 51029 40592 29207 18254 9060 2741 62 1350 6446 14735 25209 36600 47527 56663 62903 65488 64105 58923 50569 40056
42975 53033 60634 64855 65186 61586 54491 44762 33579 22297 12285 4756 624 389 4081 11250 21029 32231 43498 53463 60920 64962 65101 61319 54075 44248 33028 21777 11858 4474 522 479 4351 11669 21545 32782 44017 53888 61198 65060 65007 61045 53654 43730 32477 21259 11437 4201 428 577 4629 12093 22064 33332 44532 54306 61467 65149 64904 60763 53226 43209 31926 20745
58774 64032 65500 62998 56831 47746 36845 25449 14941 6594 1420 48 2643 8890 18033 28962 40353 50824 59105 64193 65470 62782 56454 47254 36298 24913 14481 6266 1264 83 2864 9271 18527 29510 40888 51281 59429 64344 65431 62556 56070 46758 35750 24379 14026 5946 1117 126 3093 9659 19026 30059 41421 51733 59746 64487 65382 62323 55679 46258 35200 23848 13577 5633
65487 64109 58931 50581 40071 28675 17775 8693 2530 34 1506 6769 15185 25732 37133 48004 57027 63109 65512 63944 58596 50116 39532 28128 17287 8322 2322 13 1676 7108 15652 26271 37678 48489 57394 63313 65528 63770 58253 49646 38992 27584 16804 7959 2123 2 1854 7455 16124 26812 38222 48971 57754 63508 65534 63587 57903 49172 38451 27040 16325 7603 1932 0
60770 53238 43223 31941 20758 11032 3942 346 682 4908 12512 22572 33869 45031 54707 61722 65227 64795 60480 52805 42699 31390 20247 10623 3684 271 798 5202 12948 23097 34419 45541 55113 61976 65297 64674 60182 52366 42173 30840 19740 10220 3434 205 924 5504 13390 23625 34969 46046 55513 62222 65359 64544 59876 51921 41644 30290 19236 9823 3193 148 1058 5813
46271 35215 23862 13589 5641 983 178 3325 10042 19514 30594 41937 52168 60046 64617 65326 62087 55293 45767 34665 23333 13145 5336 853 240 3571 10442 20020 31144 42464 52609 60348 64742 65259 61837 54890 45260 34115 22807 12706 5038 733 311 3825 10848 20529 31694 42989 53045 60641 64858 65184 61579 54480 44749 33564 22283 12274 4749 621 392 4088 11261 21042
27055 16337 7612 1937 0 2036 7799 16589 27341 38750 49435 58098 63690 65532 63401 57556 48705 37922 26513 15863 7262 1754 7 2232 8159 17070 27885 39291 49907 58444 63867 65520 63201 57192 48221 37377 25973 15393 6920 1581 23 2436 8526 17556 28430 39830 50374 58782 64037 65499 62993 56821 47733 36831 25435 14929 6585 1416 49 2649 8900 18046 28977 40367
9834 3199 149 1054 5805 13825 24142 35504 46535 55896 62453 65410 64409 59572 51484 41126 29755 18750 9444 2966 101 1198 6122 14277 24674 36053 47033 56283 62682 65453 64262 59251 51029 40592 29207 18254 9060 2741 62 1350 6446 14735 25209 36600 47527 56663 62903 65488 64105 58923 50569 40056 28660 17762 8683 2524 33 1511 6778 15197 25746 37147 48017 57037
624 389 4081 11250 21029 32231 43498 53463 60920 64962 65101 61319 54075 44248 33028 21777 11858 4474 522 479 4351 11669 21545 32782 44017 53888 61198 65060 65007 61045 53654 43730 32477 21259 11437 4201 428 577 4629 12093 22064 33332 44532 54306 61467 65149 64904 60763 53226 43209 31926 20745 11021 3935 344 685 4916 12524 22586 33883 45045 54718 61729 65229
2643 8890 18033 28962 40353 50824 59105 64193 65470 62782 56454 47254 36298 24913 14481 6266 1264 83 2864 9271 18527 29510 40888 51281 59429 64344 65431 62556 56070 46758 35750 24379 14026 5946 1117 126 3093 9659 19026 30059 41421 51733 59746 64487 65382 62323 55679 46258 35200 23848 13577 5633 979 180 3331 10052 19528 30608 41951 52179 60054 64621 65324 62081
15185 25732 37133 48004 57027 63109 65512 63944 58596 50116 39532 28128 17287 8322 2322 13 1676 7108 15652 26271 37678 48489 57394 63313 65528 63770 58253 49646 38992 27584 16804 7959 2123 2 1854 7455 16124 26812 38222 48971 57754 63508 65534 63587 57903 49172 38451 27040 16325 7603 1932 0 2041 7808 16601 27355 38765 49447 58107 63694 65532 63396 57546 48692
33869 45031 54707 61722 65227 64795 60480 52805 42699 31390 20247 10623 3684 271 798 5202 12948 23097 34419 45541 55113 61976 65297 64674 60182 52366 42173 30840 19740 10220 3434 205 924 5504 13390 23625 34969 46046 55513 62222 65359 64544 59876 51921 41644 30290 19236 9823 3193 148 1058 5813 13837 24156 35519 46548 55906 62459 65411 64405 59563 51472 41112 29741
52168 60046 64617 65326 62087 55293 45767 34665 23333 13145 5336 853 240 3571 10442 20020 31144 42464 52609 60348 64742 65259 61837 54890 45260 34115 22807 12706 5038 733 311 3825 10848 20529 31694 42989 53045 60641 64858 65184 61579 54480 44749 33564 22283 12274 4749 621 392 4088 11261 21042 32245 43511 53475 60927 64965 65099 61312 54064 44234 33013 21763 11847
63690 65532 63401 57556 48705 37922 26513 15863 7262 1754 7 2232 8159 17070 27885 39291 49907 58444 63867 65520 63201 57192 48221 37377 25973 15393 6920 1581 23 2436 8526 17556 28430 39830 50374 58782 64037 65499 62993 56821 47733 36831 25435 14929 6585 1416 49 2649 8900 18046 28977 40367 50836 59114 64197 65469 62776 56444 47241 36283 24899 14469 6257 1260
64409 59572 51484 41126 29755 18750 9444 2966 101 1198 6122 14277 24674 36053 47033 56283 62682 65453 64262 59251 51029 40592 29207 18254 9060 2741 62 1350 6446 14735 25209 36600 47527 56663 62903 65488 64105 58923 50569 40056 28660 17762 8683 2524 33 1511 6778 15197 25746 37147 48017 57037 63115 65512 63940 58587 50104 39518 28114 17274 8313 2317 13 1680
54075 44248 33028 21777 11858 4474 522 479 4351 11669 21545 32782 44017 53888 61198 65060 65007 61045 53654 43730 32477 21259 11437 4201 428 577 4629 12093 22064 33332 44532 54306 61467 65149 64904 60763 53226 43209 31926 20745 11021 3935 344 685 4916 12524 22586 33883 45045 54718 61729 65229 64792 60472 52793 42686 31375 20234 10612 3677 269 801 5210 12960
36298 24913 14481 6266 1264 83 2864 9271 18527 29510 40888 51281 59429 64344 65431 62556 56070 46758 35750 24379 14026 5946 1117 126 3093 9659 19026 30059 41421 51733 59746 64487 65382 62323 55679 46258 35200 23848 13577 5633 979 180 3331 10052 19528 30608 41951 52179 60054 64621 65324 62081 55282 45754 34651 23319 13133 5328 850 242 3578 10453 20034 31158
17287 8322 2322 13 1676 7108 15652 26271 37678 48489 57394 63313 65528 63770 58253 49646 38992 27584 16804 7959 2123 2 1854 7455 16124 26812 38222 48971 57754 63508 65534 63587 57903 49172 38451 27040 16325 7603 1932 0 2041 7808 16601 27355 38765 49447 58107 63694 65532 63396 57546 48692 37907 26499 15850 7253 1750 7 2237 8169 17083 27899 39305 49919
3684 271 798 5202 12948 23097 34419 45541 55113 61976 65297 64674 60182 52366 42173 30840 19740 10220 3434 205 924 5504 13390 23625 34969 46046 55513 62222 65359 64544 59876 51921 41644 30290 19236 9823 3193 148 1058 5813 13837 24156 35519 46548 55906 62459 65411 64405 59563 51472 41112 29741 18737 9433 2959 100 1201 6130 14289 24688 36067 47046 56293 62688
240 3571 10442 20020 31144 42464 52609 60348 64742 65259 61837 54890 45260 34115 22807 12706 5038 733 311 3825 10848 20529 31694 42989 53045 60641 64858 65184 61579 54480 44749 33564 22283 12274 4749 621 392 4088 11261 21042 32245 43511 53475 60927 64965 65099 61312 54064 44234 33013 21763 11847 4467 519 481 4358 11680 21558 32796 44030 53899 61205 65063 65005
8159 17070 27885 39291 49907 58444 63867 65520 63201 57192 48221 37377 25973 15393 6920 1581 23 2436 8526 17556 28430 39830 50374 58782 64037 65499 62993 56821 47733 36831 25435 14929 6585 1416 49 2649 8900 18046 28977 40367 50836 59114 64197 65469 62776 56444 47241 36283 24899 14469 6257 1260 84 2870 9281 18540 29525 40902 51293 59438 64348 65429 62550 56060
24674 36053 47033 56283 62682 65453 64262 59251 51029 40592 29207 18254 9060 2741 62 1350 6446 14735 25209 36600 47527 56663 62903 65488 64105 58923 50569 40056 28660 17762 8683 2524 33 1511 6778 15197 25746 37147 48017 57037 63115 65512 63940 58587 50104 39518 28114 17274 8313 2317 13 1680 7117 15665 26286 37692 48502 57404 63318 65528 63765 58244 49634 38978
